X:154
M:6/8
L:1/8
Q:3/8=80
K:C Minor
c>BA GAF|E2C Cz:|
|:G|c>dc BAG|edc BAG|cde dc=B|c2C CzC|E>FG BGB|Gcd edc|
cGA GAF|E2C Cz:|

